X:730
T: Train to Dublin
S: B.Breathnach:"Ceol Rince na hEireann" IV/146 (gan ainm)
Z: B.Black
L: 1/8
M: 4/4
R: reel
K: D
FAdA FAdA|BG (3AGF GE E2|FAdA FAdA|(3Bcd eg fd d2 :|
g2 bg f2 af|efed cAAc|dABG FAAf|afeg fd d2 :|
